tools/download-figma-icons/icons/solid/clock.svg

<svg width="24" height="24" viewBox="0 0 24 24" fill="none" xmlns="http://www.w3.org/2000/svg">
<path fill-rule="evenodd" clip-rule="evenodd" d="M17.2011 17.3421C17.0556 17.4831 16.8666 17.5543 16.6776 17.5543C16.4826 17.5543 16.2869 17.4786 16.1407 17.3271L11.4704 12.5309C11.4697 12.5301 11.4697 12.5294 11.4689 12.5286L11.4629 12.5226C11.4442 12.5039 11.4374 12.4791 11.4217 12.4581C11.3774 12.4034 11.3339 12.3479 11.3069 12.2811C11.2822 12.2211 11.2777 12.1574 11.2694 12.0936C11.265 12.0614 11.25 12.0329 11.25 11.9999V5.29419C11.25 4.87945 11.5859 4.5442 11.9999 4.5442C12.4139 4.5442 12.7499 4.87945 12.7499 5.29419V11.6954L17.2154 16.2816C17.5034 16.5778 17.4981 17.0526 17.2011 17.3421ZM11.9999 0C5.38345 0 0 5.38345 0 11.9999C0 18.6163 5.38345 23.9998 11.9999 23.9998C18.6171 23.9998 23.9998 18.6163 23.9998 11.9999C23.9998 5.38345 18.6171 0 11.9999 0Z" fill="black"/>
</svg>

<svg width="24" height="24" viewBox="0 0 24 24" fill="none" xmlns="http://www.w3.org/2000/svg"><path fill-rule="evenodd" clip-rule="evenodd" d="M17.201 17.342a.75.75 0 0 1-1.06-.015l-4.67-4.796-.002-.002-.006-.006c-.019-.02-.026-.044-.041-.065a.707.707 0 0 1-.115-.177c-.025-.06-.03-.124-.038-.187-.004-.033-.019-.061-.019-.094V5.294a.75.75 0 1 1 1.5 0v6.401l4.465 4.587a.75.75 0 0 1-.014 1.06ZM12 0C5.383 0 0 5.383 0 12c0 6.616 5.383 12 12 12s12-5.384 12-12c0-6.617-5.383-12-12-12Z" fill="currentColor"/></svg>
